X: 29066
T: Neil Roy
R: reel
M: 4/4
K: Gminor
GABc d2 cB|AFcF dFcA|GABc d2 cB|AFcA G/G/G GD|
GABc d2 cB|AFcF dFcA|GABc d=efd|cAfA G/G/G G2||
Ggga b2ag|fcac fcaf|dgga b2ag|fdcA G/G/G GD|
Ggga b2ag|fcfg agfa|gagf d=efd|cAfA G/G/G G2||

